X:35
T:untitled
N:Half a tune, inspired by Coleman's Slip Jig
C:Alan Ng
Z: id:ng-reels-35 composed and transcribed by Alan Ng agng@students.wisc.edu Nov. 3, 1999
M:C|
K:EMin
edBA G~E3|DEGA ~B2GA|(3ABcBA GBAG|EFGA ~B2AB|edBA G~B3|B{c}BcB GBAG|DEGA ~B2BG|EFB,D ~E2E2:|
